shader Posterize(
    int Range = 8,
    color Color = 1,
    output color Output = 0 )
{
    float posterise(float value) {
        if (Range > 1) {
            return floor(value * Range) / (Range - 1);
        }
        else if(Range == 1) {
            return 0;
        }
        else {
            return value;
        }
    }

    Output[0] = posterise(Color[0]);
    Output[1] = posterise(Color[1]);
    Output[2] = posterise(Color[2]);
}
