shader ToonOutlineContour(
        float Size = 1.0,
        float Smooth = 0,
        color BaseColor = color(0.5),
        color OutlineColor = color(0),
        output color Toon = color(1) )
{
    float ndi = dot(N, I);
    float ang = acos(ndi);
    float a = 0.0;
    if (ang < Size) {
        a = 1.0;
    }
    else if (ang < Size + Smooth) {
        a = 1.0 - ((ang - Size)/Smooth);
    }
    Toon = mix(OutlineColor, BaseColor, a);
}
